assets/logos/anthroware.svg

<svg version="1.1" id="Layer_1" x="0px" y="0px" viewBox="0 0 75.7 75.7" style="" xmlns="http://www.w3.org/2000/svg">
  <defs></defs>
  <g>
    <path class="st1" d="M 18.949 52.858 C 19.824 56.883 21.049 60.821 22.449 64.671 C 21.136 63.358 19.911 61.871 18.949 60.208 C 18.949 60.208 18.949 60.12 18.861 60.12 C 18.161 57.845 17.549 55.57 17.024 53.295 C 16.936 53.12 16.936 52.945 16.849 52.683 C 14.311 41.132 21.574 29.756 32.862 27.219 C 36.275 26.431 39.862 26.606 43.187 27.569 C 43.45 27.656 43.537 27.831 43.537 28.094 L 43.537 29.231 C 43.537 29.581 43.187 29.844 42.837 29.756 C 39.687 28.794 36.362 28.706 33.124 29.494 C 23.061 31.856 16.674 42.182 18.949 52.508 L 18.949 52.858 Z M 23.674 30.019 C 23.761 29.931 23.849 29.756 23.849 29.581 L 23.849 28.531 C 23.849 28.094 23.324 27.831 23.061 28.094 C 20.086 30.281 17.636 33.082 15.886 36.407 C 15.886 36.494 15.886 36.582 15.886 36.669 L 15.886 41.394 C 17.286 36.932 19.999 32.907 23.674 30.019 Z M 54.563 44.37 C 53.513 39.732 50.713 35.794 46.688 33.344 C 44.325 31.944 41.787 31.069 39.162 30.806 C 38.9 30.806 38.637 30.981 38.637 31.331 L 38.637 32.206 C 38.637 32.469 38.812 32.732 39.075 32.732 C 41.35 32.994 43.625 33.694 45.638 35.007 C 49.225 37.194 51.675 40.694 52.638 44.807 C 52.813 45.77 53.076 46.82 53.338 47.782 C 53.426 48.045 53.601 48.132 53.863 48.132 L 54.826 48.132 C 55.176 48.132 55.438 47.782 55.351 47.52 C 55.001 46.47 54.738 45.42 54.563 44.37 Z M 40.737 20.393 L 40.737 21.268 C 40.737 21.531 40.912 21.706 41.175 21.793 C 44.763 22.318 48.175 23.456 51.325 25.469 C 52.2 25.994 52.988 26.606 53.688 27.219 C 54.038 27.481 54.563 27.219 54.563 26.781 L 54.563 25.644 C 54.563 25.469 54.476 25.294 54.388 25.206 C 52.725 23.981 50.975 22.931 49.138 22.056 C 46.6 20.918 44.063 20.218 41.35 19.868 C 41 19.781 40.737 20.043 40.737 20.393 Z M 47.388 46.12 C 46.863 43.757 45.55 41.745 43.713 40.344 C 43.362 40.082 42.837 40.344 42.837 40.782 L 42.837 41.92 C 42.837 42.095 42.925 42.182 43.012 42.27 C 44.238 43.407 45.113 44.895 45.463 46.557 L 45.463 46.645 C 46.513 51.633 48.088 56.445 50.275 61.083 C 50.363 61.258 50.538 61.346 50.713 61.346 L 51.5 61.346 C 51.85 61.346 52.113 60.908 51.938 60.646 C 49.488 54.87 48.175 49.182 47.388 46.12 Z M 35.312 38.419 C 29.887 39.732 26.562 45.245 27.787 50.757 C 29.012 56.533 30.849 62.133 33.299 67.471 C 33.387 67.646 33.562 67.821 33.737 67.821 L 34.7 67.821 C 35.05 67.821 35.312 67.471 35.137 67.121 C 32.687 61.783 30.849 56.183 29.624 50.32 C 28.574 45.857 31.287 41.394 35.75 40.344 C 37.412 39.907 39.162 40.082 40.737 40.782 C 41.087 40.957 41.437 40.694 41.437 40.344 L 41.437 39.382 C 41.437 39.207 41.262 38.944 41.087 38.857 C 39.25 38.157 37.237 37.982 35.312 38.419 Z M 43.888 46.907 C 43.45 45.157 42.487 43.757 41 42.795 C 39.775 42.007 38.287 41.745 36.887 41.92 C 36.625 41.92 36.45 42.182 36.45 42.445 L 36.45 43.757 C 36.45 43.845 36.537 43.932 36.625 43.932 C 37.762 43.67 38.987 43.845 40.037 44.457 C 41 45.07 41.7 46.032 42.05 47.17 L 42.137 47.345 C 42.487 49.007 42.837 50.582 43.362 52.158 C 43.45 52.42 43.625 52.508 43.888 52.508 L 44.763 52.508 C 45.113 52.508 45.375 52.158 45.288 51.808 C 44.675 50.232 44.238 48.57 43.888 46.907 Z M 29.624 22.756 L 31.549 22.231 C 33.912 21.706 36.362 21.443 38.725 21.531 C 38.987 21.531 39.25 21.268 39.25 21.006 L 39.25 20.131 C 39.25 19.868 38.987 19.606 38.725 19.606 C 34.962 19.431 31.199 20.043 27.524 21.443 C 22.974 23.193 19.036 26.081 15.974 29.844 C 15.886 29.931 15.886 30.106 15.886 30.194 L 15.886 33.257 C 19.211 28.356 23.936 24.594 29.624 22.756 Z M 38.55 9.893 C 38.55 10.155 38.725 10.418 39.075 10.418 C 45.288 10.68 51.413 12.43 56.926 15.843 C 56.226 14.618 55.438 13.48 54.476 12.343 C 54.388 12.255 54.388 12.255 54.301 12.168 C 49.488 9.98 44.325 8.668 39.075 8.405 C 38.812 8.405 38.55 8.668 38.55 8.93 L 38.55 9.893 Z M 47.3 15.143 C 47.3 15.406 47.475 15.581 47.65 15.668 C 51.763 16.981 55.526 19.081 58.938 21.881 C 59.026 21.968 59.113 22.056 59.201 22.143 C 58.938 21.093 58.676 20.131 58.326 19.081 C 58.326 18.993 58.238 18.906 58.151 18.818 C 55.001 16.543 51.588 14.881 47.913 13.743 C 47.563 13.655 47.213 13.918 47.213 14.268 L 47.213 15.143 L 47.3 15.143 Z M 50.45 8.755 C 47.475 6.655 43.888 5.255 40.037 4.818 C 39.6 4.818 39.075 4.73 38.637 4.73 C 38.462 4.73 38.2 4.73 38.025 4.73 C 37.587 4.73 37.062 4.73 36.625 4.73 C 32.512 4.993 28.662 6.305 25.424 8.58 C 33.562 5.955 42.4 6.043 50.45 8.755 Z M 37.062 8.93 C 37.062 8.668 36.8 8.405 36.537 8.405 C 33.912 8.493 31.287 8.843 28.662 9.455 C 26.212 10.068 23.936 10.855 21.749 11.818 C 21.661 11.818 21.661 11.905 21.574 11.905 C 20.611 12.955 19.736 14.093 19.036 15.318 C 24.461 12.168 30.499 10.505 36.537 10.33 C 36.8 10.33 37.062 10.068 37.062 9.805 L 37.062 8.93 Z M 24.199 51.545 C 24.374 52.42 24.636 53.295 24.811 54.17 C 24.899 54.433 25.074 54.52 25.337 54.52 L 26.212 54.52 C 26.562 54.52 26.824 54.17 26.737 53.908 C 26.474 53.033 26.299 52.07 26.124 51.195 C 25.074 46.47 26.824 41.832 30.324 38.944 C 30.412 38.857 30.499 38.682 30.499 38.507 L 30.499 37.369 C 30.499 36.932 30.062 36.669 29.712 36.932 C 25.249 40.169 22.886 45.857 24.199 51.545 Z M 25.687 20.218 C 25.862 20.131 26.037 19.956 26.037 19.781 L 26.037 18.818 C 26.037 18.468 25.687 18.206 25.337 18.381 C 21.924 19.781 18.861 21.793 16.149 24.331 C 16.061 24.419 15.974 24.506 15.974 24.681 C 15.886 25.294 15.886 25.994 15.886 26.606 L 15.886 27.131 C 18.686 24.244 22.011 21.881 25.687 20.218 Z M 45.813 14.443 L 45.813 13.568 C 45.813 13.305 45.638 13.13 45.375 13.043 C 40.212 11.905 34.787 11.818 29.362 13.13 C 25.074 14.093 21.049 16.018 17.461 18.468 C 17.374 18.556 17.286 18.643 17.286 18.731 C 16.936 19.693 16.586 20.656 16.411 21.618 C 21.486 17.506 27.612 14.881 34.262 14.181 C 37.937 13.83 41.612 14.006 45.113 14.881 C 45.463 15.056 45.813 14.793 45.813 14.443 Z M 21.661 47.52 L 20.786 47.52 C 20.524 47.52 20.261 47.782 20.261 48.045 C 20.261 49.532 20.349 51.02 20.699 52.508 C 21.836 57.32 23.236 62.133 25.074 66.771 C 25.074 66.858 25.162 66.946 25.249 67.033 C 26.037 67.646 26.912 68.171 27.874 68.608 C 25.687 63.271 23.849 57.67 22.624 51.983 C 22.361 50.67 22.186 49.357 22.274 48.045 C 22.186 47.695 21.924 47.52 21.661 47.52 Z M 48.7 30.019 C 47.825 29.406 46.863 28.969 45.9 28.531 C 45.55 28.356 45.2 28.619 45.2 28.969 L 45.2 30.194 C 45.2 30.369 45.288 30.544 45.463 30.631 C 46.163 30.981 46.863 31.331 47.563 31.769 C 51.938 34.482 55.088 38.857 56.226 43.932 C 56.926 47.257 57.976 50.582 59.201 53.733 C 59.463 52.42 59.638 51.02 59.726 49.62 C 59.726 49.532 59.726 49.532 59.726 49.445 C 59.113 47.52 58.501 45.507 58.063 43.495 C 56.838 37.894 53.513 33.082 48.7 30.019 Z M 54.126 50.32 C 55.001 53.208 56.138 56.095 57.451 58.808 C 57.801 58.108 58.063 57.408 58.413 56.62 C 58.501 56.533 58.413 56.358 58.413 56.27 C 57.538 54.258 56.751 52.158 56.138 49.97 C 56.051 49.795 55.876 49.62 55.613 49.62 L 54.651 49.62 C 54.301 49.62 54.038 49.97 54.126 50.32 Z M 34.787 36.757 C 37.762 36.057 41.087 36.494 43.713 38.157 C 46.425 39.819 48.35 42.532 49.05 45.682 L 49.05 45.77 C 49.75 48.92 51.413 56.095 55.001 62.571 C 55.438 62.046 55.788 61.521 56.138 60.996 C 56.226 60.821 56.226 60.646 56.138 60.471 C 53.776 55.658 51.938 50.495 50.8 45.245 C 49.925 41.569 47.738 38.507 44.588 36.494 C 41.525 34.569 37.85 33.957 34.349 34.832 C 33.562 35.007 32.862 35.269 32.162 35.532 C 31.987 35.619 31.812 35.794 31.812 35.969 L 31.812 37.019 C 31.812 37.369 32.162 37.632 32.512 37.457 C 33.387 37.194 34.087 36.932 34.787 36.757 M 51.675 63.533 C 51.938 64.146 52.288 64.671 52.638 65.283 C 52.988 64.933 53.338 64.583 53.688 64.233 C 53.863 64.058 53.863 63.796 53.776 63.621 C 53.688 63.446 53.601 63.271 53.513 63.096 C 53.426 62.921 53.251 62.833 53.076 62.833 L 52.2 62.833 C 51.763 62.746 51.5 63.183 51.675 63.533 Z M 30.149 16.718 C 29.362 16.893 28.662 17.156 27.962 17.331 C 27.787 17.418 27.612 17.593 27.612 17.856 L 27.612 18.993 C 27.612 19.256 27.874 19.431 28.049 19.343 C 28.049 19.343 28.049 19.343 28.049 19.343 C 35.575 16.718 43.713 17.331 50.888 20.831 C 54.213 22.493 57.276 24.856 59.813 27.656 L 59.813 26.606 C 59.813 26.081 59.813 25.556 59.726 25.031 C 59.726 24.944 59.638 24.769 59.551 24.681 C 51.763 17.331 40.737 14.181 30.149 16.718 M 56.051 27.744 L 56.051 28.969 C 56.051 29.144 56.138 29.231 56.226 29.319 C 57.538 30.631 58.763 32.119 59.726 33.694 L 59.726 30.544 C 59.726 30.456 59.726 30.281 59.638 30.194 C 58.851 29.144 57.888 28.181 56.926 27.306 C 56.663 27.044 56.051 27.306 56.051 27.744 Z M 50.538 26.956 C 44.938 23.544 38.375 22.406 32.074 23.894 C 29.799 24.419 27.699 25.294 25.687 26.431 C 25.512 26.519 25.424 26.694 25.424 26.869 L 25.424 27.831 C 25.424 28.269 25.862 28.444 26.212 28.269 C 28.049 27.131 30.149 26.344 32.337 25.819 C 38.2 24.419 44.325 25.381 49.4 28.531 C 54.651 31.769 58.238 36.844 59.726 42.882 L 59.726 37.282 C 59.726 37.194 59.726 37.107 59.638 37.019 C 57.626 32.994 54.563 29.406 50.538 26.956 Z M 37.062 32.206 L 37.062 31.331 C 37.062 31.069 36.8 30.806 36.537 30.806 C 35.575 30.894 34.612 30.981 33.649 31.244 C 26.649 32.907 21.661 38.682 20.524 45.42 C 20.436 45.77 20.699 46.032 21.049 46.032 L 21.924 46.032 C 22.186 46.032 22.361 45.857 22.449 45.595 C 23.499 39.644 27.962 34.569 34.087 33.082 C 34.962 32.907 35.75 32.732 36.625 32.732 C 36.887 32.644 37.062 32.469 37.062 32.206 Z M 44.063 54.783 C 45.55 59.245 47.475 63.446 49.75 67.471 C 50.188 67.208 50.538 66.946 50.888 66.683 C 51.063 66.508 51.15 66.246 51.063 65.983 C 48.963 62.308 47.3 58.458 45.9 54.433 C 45.813 54.258 45.638 54.083 45.375 54.083 L 44.5 54.083 C 44.15 54.083 43.888 54.433 44.063 54.783 Z M 34.7 44.895 C 34.787 44.807 34.875 44.632 34.875 44.545 L 34.875 43.407 C 34.875 42.97 34.437 42.707 34.087 42.97 C 31.899 44.457 30.762 47.17 31.374 49.882 C 32.949 57.145 35.487 64.058 38.9 70.621 C 38.987 70.796 39.162 70.884 39.425 70.884 C 40.037 70.884 40.65 70.796 41.175 70.709 C 37.587 64.058 34.875 56.883 33.212 49.445 C 32.862 47.782 33.474 46.032 34.7 44.895 Z M 25.512 56.708 C 26.737 60.996 28.224 65.283 30.062 69.396 C 30.149 69.484 30.237 69.659 30.324 69.659 C 31.024 69.921 31.812 70.184 32.512 70.359 C 30.412 65.896 28.662 61.258 27.262 56.445 C 27.174 56.183 26.999 56.095 26.737 56.095 L 25.862 56.095 C 25.687 56.095 25.424 56.358 25.512 56.708 Z M 34.437 70.096 C 34.525 70.271 34.612 70.446 34.612 70.534 C 34.7 70.709 34.875 70.796 35.05 70.796 C 35.662 70.884 36.362 70.971 37.062 70.971 C 36.8 70.534 36.625 70.096 36.362 69.659 C 36.275 69.484 36.1 69.396 35.925 69.396 L 34.962 69.396 C 34.525 69.308 34.262 69.746 34.437 70.096 Z M 39.075 46.032 C 38.462 45.682 37.675 45.507 36.975 45.682 C 35.487 46.032 34.525 47.52 34.875 49.095 C 35.575 52.42 36.537 55.658 37.587 58.808 C 37.675 58.983 37.85 59.158 38.112 59.158 L 38.987 59.158 C 39.337 59.158 39.6 58.808 39.512 58.458 C 38.375 55.308 37.412 51.983 36.712 48.657 C 36.625 48.22 36.887 47.695 37.325 47.607 C 37.587 47.52 37.762 47.607 38.025 47.695 C 38.2 47.782 38.375 48.045 38.462 48.22 C 40.037 55.658 42.75 62.658 46.425 69.221 C 47.038 68.958 47.563 68.696 48.175 68.346 C 44.5 61.958 41.787 55.045 40.3 47.695 C 40.125 46.995 39.687 46.382 39.075 46.032 Z M 38.637 61.258 C 39.862 64.233 41.175 67.121 42.75 70.009 C 42.837 70.184 43.1 70.359 43.362 70.271 C 43.888 70.184 44.325 70.009 44.85 69.834 C 43.187 66.946 41.787 63.971 40.562 60.908 C 40.475 60.733 40.3 60.558 40.125 60.558 L 39.162 60.558 C 38.725 60.558 38.462 60.996 38.637 61.258 Z" style="fill: rgb(255, 255, 255);"></path>
  </g>
</svg>

<svg xmlns="http://www.w3.org/2000/svg" viewBox="0 0 75.7 75.7">
  <path fill="#fff" d="M18.95 52.86a91 91 0 0 0 3.5 11.81 21.88 21.88 0 0 1-3.5-4.46s0-.09-.09-.09a98.57 98.57 0 0 1-1.84-6.82c-.08-.18-.08-.35-.17-.62a21.36 21.36 0 0 1 16.01-25.46c3.41-.79 7-.61 10.33.35.26.09.35.26.35.52v1.14c0 .35-.35.61-.7.53a18.3 18.3 0 0 0-9.72-.27c-10.06 2.37-16.45 12.7-14.17 23.02v.35Zm4.72-22.84a.67.67 0 0 0 .18-.44v-1.05c0-.44-.53-.7-.79-.44a24.37 24.37 0 0 0-7.17 8.32v4.98a23.42 23.42 0 0 1 7.78-11.37Zm30.9 14.35a17.26 17.26 0 0 0-7.88-11.03 18.33 18.33 0 0 0-7.53-2.53c-.26 0-.52.17-.52.52v.88c0 .26.17.52.44.52a15 15 0 0 1 6.56 2.28 15.46 15.46 0 0 1 7 9.8c.17.96.44 2.01.7 2.97.09.27.26.35.52.35h.97c.35 0 .6-.35.52-.61-.35-1.05-.61-2.1-.79-3.15ZM40.73 20.39v.88c0 .26.17.44.43.52 3.6.53 7 1.67 10.16 3.68a16.5 16.5 0 0 1 2.36 1.75c.35.26.87 0 .87-.44v-1.14a.67.67 0 0 0-.17-.43 32.14 32.14 0 0 0-5.25-3.15 27.22 27.22 0 0 0-7.79-2.2c-.35-.08-.61.18-.61.53Zm6.65 25.73a9.93 9.93 0 0 0-3.68-5.78.55.55 0 0 0-.87.44v1.14c0 .17.08.26.17.35a8.15 8.15 0 0 1 2.45 4.29v.09a65.14 65.14 0 0 0 4.81 14.43c.1.18.27.27.44.27h.79c.35 0 .61-.44.44-.7-2.45-5.78-3.77-11.47-4.55-14.53Zm-12.08-7.7a10.33 10.33 0 0 0-7.52 12.34 79.63 79.63 0 0 0 5.5 16.71c.1.18.27.35.45.35h.96c.35 0 .61-.35.44-.7a78.75 78.75 0 0 1-5.52-16.8 8.26 8.26 0 0 1 6.13-9.98 7.54 7.54 0 0 1 4.99.44c.35.18.7-.09.7-.44v-.96c0-.17-.18-.44-.35-.52a10 10 0 0 0-5.78-.44Zm8.58 8.49A6.66 6.66 0 0 0 41 42.8a6.2 6.2 0 0 0-4.11-.88c-.27 0-.44.26-.44.52v1.32c0 .09.09.17.17.17a4.7 4.7 0 0 1 3.42.53 4.88 4.88 0 0 1 2.01 2.71l.09.17c.35 1.67.7 3.24 1.22 4.82.09.26.27.35.53.35h.87c.35 0 .62-.35.53-.7a31.34 31.34 0 0 1-1.4-4.9ZM29.62 22.76l1.93-.53c2.36-.52 4.81-.79 7.18-.7.26 0 .52-.26.52-.52v-.88a.56.56 0 0 0-.52-.52 27.67 27.67 0 0 0-22.76 10.23c-.08.1-.08.27-.08.35v3.07a26.49 26.49 0 0 1 13.73-10.5Zm8.93-12.87c0 .26.18.53.53.53a36.65 36.65 0 0 1 17.85 5.42 23 23 0 0 0-2.45-3.5c-.1-.08-.1-.08-.18-.17A41.92 41.92 0 0 0 39.08 8.4a.56.56 0 0 0-.53.53v.96Zm8.75 5.25c0 .27.18.44.35.53a34.04 34.04 0 0 1 11.29 6.21l.26.26a40.43 40.43 0 0 0-.87-3.06c0-.09-.1-.17-.18-.26a35 35 0 0 0-10.24-5.08.56.56 0 0 0-.7.53v.87h.09Zm3.15-6.38a22.5 22.5 0 0 0-10.41-3.94c-.44 0-.96-.09-1.4-.09h-2.02a21.79 21.79 0 0 0-11.2 3.85 40.12 40.12 0 0 1 25.03.18Zm-13.39.17a.56.56 0 0 0-.52-.53 40.6 40.6 0 0 0-7.88 1.05c-2.45.62-4.72 1.4-6.91 2.37-.09 0-.09.08-.18.08a19.17 19.17 0 0 0-2.53 3.42 37 37 0 0 1 17.5-4.99c.26 0 .52-.26.52-.53v-.87ZM24.2 51.55c.17.87.44 1.75.61 2.62.09.26.26.35.53.35h.87c.35 0 .61-.35.53-.61-.27-.88-.44-1.84-.62-2.71-1.05-4.73.7-9.37 4.2-12.26a.66.66 0 0 0 .18-.43v-1.14c0-.44-.44-.7-.79-.44a14.14 14.14 0 0 0-5.51 14.62Zm1.49-31.33c.17-.09.35-.26.35-.44v-.96a.48.48 0 0 0-.7-.44 30.14 30.14 0 0 0-9.2 5.95c-.08.09-.17.18-.17.35-.08.61-.08 1.31-.08 1.93v.52a32.14 32.14 0 0 1 9.8-6.91Zm20.12-5.78v-.87c0-.27-.17-.44-.44-.53a35.36 35.36 0 0 0-16 .09 34.82 34.82 0 0 0-11.9 5.34c-.1.09-.18.17-.18.26-.35.96-.7 1.93-.88 2.89a33.9 33.9 0 0 1 17.85-7.44c3.68-.35 7.35-.17 10.85.7.35.18.7-.09.7-.44ZM21.66 47.52h-.87a.56.56 0 0 0-.53.52c0 1.5.09 2.98.44 4.47a103 103 0 0 0 4.37 14.26c0 .09.1.18.18.26.79.62 1.66 1.14 2.62 1.58a99.26 99.26 0 0 1-5.25-16.63 14.97 14.97 0 0 1-.35-3.93c-.08-.35-.35-.53-.6-.53Zm27.04-17.5c-.88-.61-1.84-1.05-2.8-1.49a.48.48 0 0 0-.7.44v1.22c0 .18.09.35.26.44a19.3 19.3 0 0 1 10.76 13.3 63.7 63.7 0 0 0 2.98 9.8c.26-1.31.44-2.71.53-4.11v-.17a66.31 66.31 0 0 1-1.67-5.96 21.25 21.25 0 0 0-9.36-13.47Zm5.43 20.3a58.82 58.82 0 0 0 3.32 8.49c.35-.7.61-1.4.96-2.19.1-.09 0-.26 0-.35a48.9 48.9 0 0 1-2.27-6.3.59.59 0 0 0-.53-.35h-.96c-.35 0-.61.35-.52.7ZM34.79 36.76c2.97-.7 6.3-.27 8.92 1.4a11.8 11.8 0 0 1 5.34 7.52v.09c.7 3.15 2.36 10.32 5.95 16.8.44-.52.79-1.05 1.14-1.57a.56.56 0 0 0 0-.53 67.01 67.01 0 0 1-5.34-15.23 14.15 14.15 0 0 0-6.21-8.75 13.19 13.19 0 0 0-10.24-1.66c-.79.18-1.49.44-2.19.7-.17.09-.35.26-.35.44v1.05c0 .35.35.61.7.44.88-.27 1.58-.53 2.28-.7m16.88 26.77c.27.62.62 1.14.97 1.75l1.05-1.05a.54.54 0 0 0 .09-.6l-.27-.53a.48.48 0 0 0-.43-.27h-.88c-.44-.08-.7.35-.53.7ZM30.15 16.72c-.79.17-1.49.44-2.19.61a.59.59 0 0 0-.35.53v1.13c0 .27.26.44.44.35a29.61 29.61 0 0 1 31.76 8.32V26.6c0-.53 0-1.05-.08-1.58a.67.67 0 0 0-.18-.35 32.03 32.03 0 0 0-29.4-7.96m25.9 11.02v1.23c0 .17.09.26.18.35a24.04 24.04 0 0 1 3.5 4.37v-3.15c0-.08 0-.26-.1-.35a21.2 21.2 0 0 0-2.7-2.88c-.27-.27-.88 0-.88.43Zm-5.51-.78a24.52 24.52 0 0 0-18.47-3.07c-2.27.53-4.37 1.4-6.38 2.54a.48.48 0 0 0-.27.44v.96c0 .44.44.61.8.44a20.87 20.87 0 0 1 6.12-2.45 22.42 22.42 0 0 1 17.06 2.71 23.1 23.1 0 0 1 10.33 14.35v-5.6c0-.09 0-.17-.1-.26a24.54 24.54 0 0 0-9.1-10.06ZM37.06 32.2v-.88a.56.56 0 0 0-.52-.52 17.5 17.5 0 0 0-16.01 14.61c-.1.35.17.61.52.61h.87c.27 0 .44-.17.53-.44a15.67 15.67 0 0 1 11.64-12.5c.87-.18 1.66-.36 2.53-.36.27-.09.44-.26.44-.52Zm7 22.57a71.94 71.94 0 0 0 5.69 12.7c.44-.27.79-.53 1.14-.8a.68.68 0 0 0 .17-.7 68.38 68.38 0 0 1-5.16-11.55.59.59 0 0 0-.52-.35h-.88a.48.48 0 0 0-.44.7ZM34.7 44.9a.67.67 0 0 0 .17-.35V43.4c0-.44-.43-.7-.78-.44a6.59 6.59 0 0 0-2.72 6.91 82.87 82.87 0 0 0 7.53 20.74c.09.18.26.26.52.26.62 0 1.23-.08 1.75-.17a83.06 83.06 0 0 1-7.96-21.26 4.9 4.9 0 0 1 1.49-4.55Zm-9.19 11.8a95.33 95.33 0 0 0 4.55 12.7c.09.08.18.26.26.26.7.26 1.5.52 2.2.7a94.84 94.84 0 0 1-5.26-13.91c-.09-.27-.26-.36-.52-.36h-.88c-.17 0-.44.27-.35.62Zm8.93 13.4c.09.17.17.35.17.43a.5.5 0 0 0 .44.27c.61.08 1.31.17 2.01.17-.26-.44-.44-.87-.7-1.31a.48.48 0 0 0-.44-.26h-.96c-.44-.1-.7.35-.52.7Zm4.64-24.07a2.94 2.94 0 0 0-2.1-.35 2.84 2.84 0 0 0-2.1 3.41c.7 3.33 1.66 6.57 2.7 9.72.1.17.27.35.53.35H39c.35 0 .61-.35.52-.7a74 74 0 0 1-2.8-9.8c-.09-.44.18-.96.62-1.05.26-.09.43 0 .7.09.17.08.34.34.43.52a74.38 74.38 0 0 0 7.96 21c.62-.26 1.14-.52 1.75-.87A68.66 68.66 0 0 1 40.3 47.7a2.65 2.65 0 0 0-1.22-1.67Zm-.44 15.23A88.16 88.16 0 0 0 42.75 70c.09.17.35.35.61.26.53-.09.97-.26 1.49-.44a69.55 69.55 0 0 1-4.29-8.92c-.09-.18-.26-.35-.44-.35h-.96c-.43 0-.7.44-.52.7Z" class="st1"/>
</svg>
